**kern	**kern	**dynam
*part1	*part1	*part1
*staff2	*staff1	*
*I"Piano	*	*
*clefF4	*clefG2	*
*k[b-]	*k[b-]	*
=1	=1	=1
*^	*	*
*tremolo	*	*	*
(32F#XLLL	4.CC#X 4.C#X	2e	.
32Bn)	.	.	.
32F#X	.	.	.
32Bn)	.	.	.
32F#X	.	.	.
32Bn)	.	.	.
32F#X	.	.	.
32Bn)	.	.	.
32F#X	.	.	.
32Bn)	.	.	.
32F#X	.	.	.
32Bn)	.	.	.
32F#X	8CC# 8C#	.	.
32Bn)	.	.	.
32F#X	.	.	.
32Bn)JJJ	.	.	.
(32F#LLL	4.DD#X 4.D#X	2f#X	.
32B)	.	.	.
32F#	.	.	.
32B)	.	.	.
32F#	.	.	.
32B)	.	.	.
32F#	.	.	.
32B)	.	.	.
32F#	.	.	.
32B)	.	.	.
32F#	.	.	.
32B)	.	.	.
32F#	8DD# 8D#	.	.
32B)	.	.	.
32F#	.	.	.
32B)JJJ	.	.	.
=	=	=	=
(32GLLL	4.EE 4.E	1g	.
32Bn)	.	.	.
32G	.	.	.
32Bn)	.	.	.
32G	.	.	.
32Bn)	.	.	.
32G	.	.	.
32Bn)	.	.	.
32G	.	.	.
32Bn)	.	.	.
32G	.	.	.
32Bn)	.	.	.
32G	8EE 8E	.	.
32Bn)	.	.	.
32G	.	.	.
32Bn)JJJ	.	.	.
(16GLL	2EE 2E	.	.
16cn	.	.	.
16G	.	.	.
16cJJ	.	.	.
16B-XLL	.	.	.
16d-X	.	.	.
16B-	.	.	.
16d-JJ)	.	.	.
=	=	=	=
(32B-LLL	2.FF 2.F	1f	>
32c	.	.	.
32B-	.	.	.
32c	.	.	.
32B-	.	.	.
32c	.	.	.
32B-	.	.	.
32c	.	.	.
32B-	.	.	.
32c	.	.	.
32B-	.	.	.
32c	.	.	.
32B-	.	.	.
32c	.	.	.
32B-	.	.	.
32cJJJ	.	.	.
32B-LLL	.	.	.
32c)	.	.	.
32B-	.	.	.
32c)	.	.	.
32B-	.	.	.
32c)	.	.	.
32B-	.	.	.
32c)	.	.	.
32B-	4FF 4F	.	.
32c)	.	.	.
32B-	.	.	.
32c)	.	.	.
32B-	.	.	.
32c)	.	.	.
32B-	.	.	.
32c)JJJ	.	.	.
=	=	=	=
(32ALLL	2FF 2F	1f	.
32c	.	.	.
32A	.	.	.
32c	.	.	.
32A	.	.	.
32c	.	.	.
32A	.	.	.
32c	.	.	.
32A	.	.	.
32c	.	.	.
32A	.	.	.
32c	.	.	.
32A	.	.	.
32c	.	.	.
32A	.	.	.
32cJJJ	.	.	.
32ALLL	2FFF 2FF	.	.
32c)	.	.	.
32A	.	.	.
32c)	.	.	.
32A	.	.	.
32c)	.	.	.
32A	.	.	.
32c)	.	.	.
32A	.	.	.
32c)	.	.	.
32A	.	.	.
32c)	.	.	.
32A	.	.	.
32c)	.	.	.
32A	.	.	.
32c)JJJ	.	.	.
*Xtremolo	*	*	*
=	=	=	=
*	*	*^	*
12r	2BB-	2ryy	2d 2f	] p
(12DL	.	.	.	.
12FJ	.	.	.	.
4B-)	.	.	.	.
12r	2BB-	(4ccc	2ee-X 2ff	.
(12E-XL	.	.	.	.
12FJ	.	.	.	.
4c)	.	8bb-L	.	.
.	.	8aaJ)	.	.
*	*	*v	*v	*
=	=	=	=
12r	2BB-	2ff: 2bb-: 2ddd: 2fff:	.
(12DL	.	.	.
12FJ	.	.	.
4B-)	.	.	.
12r	2BB-	2ff: 2aa: 2ccc: 2fff:	.
(12E-XL	.	.	.
12FJ	.	.	.
4c)	.	.	.
=	=	=	=
12r	2BB-	2dd: 2ff: 2bb-: 2ddd:	.
(12DL	.	.	.
12FJ	.	.	.
4B-)	.	.	.
*	*	*^	*
12r	2BB-	(4ccc	2ee-X 2ff	.
(12E-XL	.	.	.	.
12FJ	.	.	.	.
4c)	.	8bb-L	.	.
.	.	8aaJ)	.	.
*v	*v	*	*	*
*	*v	*v	*
=	=	=
*-	*-	*-
!!!system-decoration: {(s1,s2)}
